src/assets/metronic/worbby/global/img/icon-insurance-open.svg

<?xml version="1.0" encoding="UTF-8"?>
<svg width="80px" height="80px" viewBox="0 0 80 80" version="1.1" xmlns="http://www.w3.org/2000/svg" xmlns:xlink="http://www.w3.org/1999/xlink">
    <defs>
        <polygon id="path-1" points="0.482107863 19.4117647 10.5432941 19.4117647 10.5432941 0.442941176 0.482107863 0.442941176 0.482107863 19.4117647"></polygon>
    </defs>
    <g id="Desktop" stroke="none" stroke-width="1" fill="none" fill-rule="evenodd">
        <g id="icons" transform="translate(-100.000000, -164.000000)">
            <g id="icon-insurance-open-copy-3" transform="translate(100.000000, 164.000000)">
                <circle id="Oval" fill="#FFFFFF" cx="27.5" cy="52.5" r="27.5"></circle>
                <path d="M79.9798629,35.9292667 C79.809936,18.4620511 66.1222236,4.16878882 48.8765461,2.94928243 L48.8765461,2.37998905 C48.8765461,1.0652831 47.8082974,0 46.4899315,0 C45.1715655,0 44.1033168,1.0652831 44.1033168,2.37998905 L44.1033168,2.94928243 C26.7554922,4.17545279 13.0085918,18.6343623 13,36.2434253 C13,37.3172763 13.719803,38.257848 14.7594123,38.5405907 C14.9675251,38.5977105 15.1785019,38.6243663 15.3866147,38.6243663 C16.2171566,38.6243663 17.0066487,38.1912083 17.4429218,37.4515077 C18.6868254,35.3447414 20.984658,33.9300759 23.1631598,33.9300759 C25.3359338,33.9300759 27.5573947,35.3123736 28.8194366,37.4515077 C29.2480726,38.1788324 30.0308822,38.6243663 30.8757438,38.6243663 L30.8766984,38.6243663 C31.7225146,38.6243663 32.5053242,38.1769284 32.9330056,37.4505557 C34.1539976,35.3771093 36.5320205,33.9300759 38.7143409,33.9300759 C40.7200519,33.9300759 42.8145449,35.1353024 44.1033168,36.965038 L44.1033168,70.2744127 C44.1033168,75.6370041 48.4794134,80 53.8588429,80 C59.2382723,80 63.6143689,75.6370041 63.6143689,70.2744127 C63.6143689,68.9597068 62.5461202,67.8944237 61.2277543,67.8944237 C59.9093883,67.8944237 58.8411396,68.9597068 58.8411396,70.2744127 C58.8411396,73.0123521 56.6063137,75.2400219 53.8588429,75.2400219 C51.1113721,75.2400219 48.8765461,73.0123521 48.8765461,70.2744127 L48.8765461,36.96599 C50.1700913,35.1343504 52.2645843,33.9300759 54.2645674,33.9300759 C56.4526157,33.9300759 58.7552215,35.3447414 59.9962611,37.4505557 C60.4239425,38.1778804 61.2067521,38.6243663 62.0525683,38.6243663 L62.053523,38.6243663 C62.8993392,38.6243663 63.6811941,38.1778804 64.1098301,37.4524597 C65.3537337,35.3456934 67.6467931,33.9300759 69.8167031,33.9300759 C71.9942503,33.9300759 74.2939922,35.3456934 75.539805,37.4534117 C75.9827607,38.2026323 76.7712982,38.6148464 77.6304795,38.6243663 C78.9412082,38.6148464 79.9999105,37.5533713 79.9999105,36.2443773 C80.0008651,36.1368018 79.9941826,36.0320823 79.9798629,35.9292667 Z M69.8167031,29.1691458 C67.0004978,29.1691458 64.1871565,30.3953162 62.053523,32.4421068 C59.9189348,30.3953162 57.096047,29.1691458 54.2645674,29.1691458 C51.4445435,29.1691458 48.6283382,30.3953162 46.4918408,32.4421068 C44.3601166,30.3953162 41.5410473,29.1691458 38.7152956,29.1691458 C35.8628137,29.1691458 33.0236969,30.3953162 30.8814716,32.4421068 C28.7554753,30.3953162 25.9593176,29.1691458 23.1641145,29.1691458 C21.5278515,29.1691458 19.8934978,29.5813599 18.3937491,30.3248685 C21.1412199,17.3701121 32.6972081,7.61596497 46.4908861,7.61596497 C60.2855188,7.61596497 71.8434163,17.3701121 74.5908871,30.3267725 C73.0873198,29.5813599 71.4520115,29.1691458 69.8167031,29.1691458 Z" id="Shape" fill="#1E2225" fill-rule="nonzero"></path>
                <g id="Page-1" transform="translate(13.000000, 43.000000)">
                    <g id="Group-3" transform="translate(12.941176, 0.145529)">
                        <mask id="mask-2" fill="white">
                            <use xlink:href="#path-1"></use>
                        </mask>
                        <g id="Clip-2"></g>
                        <path d="M8.33505882,13.262 C8.33505882,12.2443529 7.55564706,11.6814118 6.42976471,11.2696471 L6.32094118,11.2267059 L6.32094118,15.2325882 C7.59858824,15.0155294 8.33505882,14.2796471 8.33505882,13.262 L8.33505882,13.262 Z M5.04329412,4.77317647 C4.02564706,4.94670588 3.22447059,5.57494118 3.22447059,6.65729412 C3.22447059,7.22023529 3.35447059,7.97847059 4.93505882,8.56317647 L5.04329412,8.60611765 L5.04329412,4.77317647 Z M5.04329412,18.9790588 L5.04329412,17.1814118 C2.70505882,17.0514118 1.08035294,15.752 0.517411765,14.1067059 C0.409176471,13.8249412 0.560941176,13.6296471 0.820941176,13.5649412 L1.92564706,13.262 C2.18505882,13.1972941 2.35858824,13.3055294 2.46623529,13.5867059 C2.83447059,14.4531765 3.78741176,15.1243529 5.04329412,15.2543529 L5.04329412,10.7714118 L4.37211765,10.5337647 C1.70858824,9.68905882 1.01564706,8.02141176 1.01564706,6.72258824 C1.01564706,4.47023529 2.85623529,3.04141176 5.04329412,2.82435294 L5.04329412,0.875529412 C5.04329412,0.594352941 5.19505882,0.442588235 5.47682353,0.442588235 L5.888,0.442588235 C6.16917647,0.442588235 6.32094118,0.594352941 6.32094118,0.875529412 L6.32094118,2.84611765 C8.22623529,3.06317647 9.56917647,4.16729412 10.0674118,5.70435294 C10.1538824,5.98611765 10.0238824,6.18082353 9.76388235,6.26729412 L8.72505882,6.59258824 C8.46505882,6.67905882 8.29152941,6.57082353 8.18329412,6.31082353 C7.83682353,5.42317647 7.20917647,4.94670588 6.32094118,4.79494118 L6.32094118,9.08258824 L7.05741176,9.36435294 C9.37447059,10.0784706 10.5432941,11.6161176 10.5432941,13.1537647 C10.5432941,15.4272941 8.81152941,16.922 6.32094118,17.1814118 L6.32094118,18.9790588 C6.32094118,19.2602353 6.16917647,19.412 5.888,19.412 L5.47682353,19.412 C5.19505882,19.412 5.04329412,19.2602353 5.04329412,18.9790588 L5.04329412,18.9790588 Z" id="Fill-1" fill="#1E2225" mask="url(#mask-2)"></path>
                    </g>
                    <path d="M5.93329412,10.1377647 C7.60094118,10.1377647 8.61858824,8.94658824 8.61858824,7.27952941 C8.61858824,5.56835294 7.57917647,4.37776471 5.93329412,4.37776471 L2.29505882,4.37776471 L2.29505882,10.1377647 L5.93329412,10.1377647 Z M5.28388235,11.9565882 L2.29505882,11.9565882 L2.29505882,16.8724706 C2.29505882,17.3701176 2.01388235,17.6518824 1.51623529,17.6518824 L0.779764706,17.6518824 C0.281529412,17.6518824 0.000352941176,17.3701176 0.000352941176,16.8724706 L0.000352941176,3.27364706 C0.000352941176,2.77482353 0.281529412,2.49364706 0.779764706,2.49364706 L6.388,2.49364706 C9.31152941,2.49364706 11.0003529,4.70247059 11.0003529,7.27952941 C11.0003529,9.53129412 9.70094118,11.4154118 7.44917647,11.8483529 C7.60094118,13.4942353 8.61858824,15.9624706 10.2644706,15.9624706 C10.6974118,15.9624706 11.0656471,15.876 11.3685882,15.7024706 C11.8450588,15.486 12.1697647,15.5301176 12.408,15.9842353 L12.5162353,16.1795294 C12.7109412,16.6124706 12.6891765,17.0018824 12.278,17.2618824 C11.6285882,17.6948235 10.8709412,17.8901176 10.0909412,17.8901176 C6.518,17.8901176 5.43564706,13.7754118 5.28388235,11.9565882 L5.28388235,11.9565882 Z" id="Fill-4" fill="#1E2225"></path>
                </g>
            </g>
        </g>
    </g>
</svg>

<svg xmlns="http://www.w3.org/2000/svg" width="80" height="80" xmlns:xlink="http://www.w3.org/1999/xlink"><defs><path id="a" d="M.482 19.4118h10.0613V.4428H.482v18.969z"/></defs><g fill="none" fill-rule="evenodd"><circle cx="27.5" cy="52.5" r="27.5" fill="#FFF"/><path fill="#1E2225" fill-rule="nonzero" d="M79.98 35.9293C79.81 18.462 66.122 4.1688 48.8764 2.9493V2.38c0-1.3147-1.0682-2.38-2.3866-2.38s-2.3867 1.0653-2.3867 2.38v.5693C26.7555 4.1755 13.0086 18.6343 13 36.2433c0 1.074.7198 2.0145 1.7594 2.2973.208.057.419.0838.6272.0838.8306 0 1.62-.4332 2.0563-1.173 1.2438-2.1067 3.5417-3.5213 5.7202-3.5213 2.1727 0 4.3942 1.3824 5.6562 3.5215.4287.7273 1.2115 1.173 2.0563 1.173h.001c.8458 0 1.6286-.4476 2.0563-1.174 1.221-2.0734 3.599-3.5204 5.7813-3.5204 2.0058 0 4.1002 1.2053 5.389 3.035v33.3094c0 5.3626 4.376 9.7256 9.7555 9.7256 5.3795 0 9.7556-4.363 9.7556-9.7256 0-1.3147-1.0683-2.38-2.3866-2.38-1.3184 0-2.3867 1.0653-2.3867 2.38 0 2.738-2.2347 4.9656-4.9822 4.9656-2.7474 0-4.9823-2.2276-4.9823-4.9656V36.966c1.2936-1.8316 3.388-3.036 5.388-3.036 2.188 0 4.4907 1.4147 5.7318 3.5206.4276.7273 1.2105 1.1738 2.0563 1.1738h.001c.8457 0 1.6276-.4465 2.0562-1.172 1.244-2.1067 3.537-3.5223 5.707-3.5223 2.1775 0 4.4772 1.4157 5.723 3.5234.443.7492 1.2315 1.1614 2.0907 1.171 1.3107-.0096 2.3694-1.071 2.3694-2.38.001-.1076-.0058-.2123-.02-.315zM69.8166 29.169c-2.8162 0-5.6295 1.2263-7.7632 3.273-2.1346-2.0467-4.9575-3.273-7.789-3.273-2.82 0-5.6362 1.2263-7.7727 3.273-2.1317-2.0467-4.9508-3.273-7.7765-3.273-2.8525 0-5.6916 1.2263-7.8338 3.273-2.126-2.0467-4.9222-3.273-7.7174-3.273-1.636 0-3.2705.4124-4.7703 1.156C21.1412 17.37 32.6972 7.616 46.491 7.616c13.7945 0 25.3524 9.754 28.1 22.7108-1.5037-.7454-3.139-1.1577-4.7743-1.1577z"/><g transform="translate(25.94 43.146)"><mask id="b" fill="#fff"><use xlink:href="#a"/></mask><path fill="#1E2225" d="M8.335 13.262c0-1.0176-.7794-1.5806-1.9052-1.9924l-.109-.043v4.006c1.2778-.217 2.0143-.953 2.0143-1.9706zM5.0434 4.7732c-1.0177.1735-1.8188.8017-1.8188 1.884 0 .563.13 1.3213 1.7106 1.906l.1083.043V4.773zm0 14.206v-1.7978c-2.3382-.13-3.963-1.4294-4.526-3.0747-.108-.2818.0436-.477.3036-.5418l1.1046-.303c.2595-.0647.433.0435.5406.3247.3683.8665 1.3212 1.5377 2.577 1.6677v-4.483l-.671-.2376C1.7085 9.689 1.0155 8.0214 1.0155 6.7226c0-2.2524 1.8406-3.6812 4.0277-3.8982V.8754c0-.281.1518-.4328.4335-.4328h.4112c.2812 0 .433.1518.433.433V2.846c1.9052.2172 3.2482 1.3213 3.7464 2.8584.0865.2817-.0435.4764-.3035.563l-1.039.3252c-.26.0865-.4335-.0218-.5417-.2818-.3465-.8876-.974-1.364-1.8624-1.516v4.2878l.7364.2818c2.317.714 3.486 2.2517 3.486 3.7894 0 2.2735-1.732 3.7682-4.2225 4.0276v1.7977c0 .2812-.1518.433-.433.433h-.4112c-.2817 0-.4335-.1518-.4335-.433z" mask="url(#b)"/></g><path fill="#1E2225" d="M18.9333 53.1378c1.6676 0 2.6853-1.1912 2.6853-2.8583 0-1.711-1.0394-2.9017-2.6853-2.9017H15.295v5.76h3.6383zm-.6494 1.8188h-2.989v4.916c0 .4975-.281.7793-.7788.7793h-.7364c-.4983 0-.7794-.282-.7794-.7795v-13.599c0-.4987.281-.78.7794-.78h5.6082c2.9235 0 4.6124 2.209 4.6124 4.786 0 2.2518-1.2995 4.136-3.5512 4.569.1517 1.6457 1.1694 4.114 2.8153 4.114.433 0 .801-.0865 1.104-.26.4766-.2165.8013-.1724 1.0395.2817l.1082.1953c.1947.433.173.8224-.2382 1.0824-.6494.4328-1.407.628-2.187.628-3.573 0-4.6554-4.1146-4.807-5.9334z"/></g></svg>
